!!!COM: Claude Debussy
!!!CNT: Francais
!!!TXO: Francais
!!!OTL: la Chevelure
!!!LYR: Pierre Louy2s
!!!OPR: Trois Chansons de Bilitis
!!!ONM: No. 2
!!!ENC: Jacob Pegg
!!!YOR: Claude Debussy: Songs 1880-1904, Edited by Rita Benton
!!!YOR: New York: Dover publications, inc., 1981
!!!YOR: ISBN 0-486-24131-9
!!!ODT: 1897/
!!NB: Vocal melody and text only encoded.
!!NB: First instance of melodic material only encoded.
**kern	**silbe
*clef G2	*
*k[b-e-a-d-g-c-]	*
*M6/4	*
*MM[lento]	*
!!created: 7/23/03 20:27
!!last edited: 7/24/03 0:12
!!time in: notes 21, words 17; check notes 8, words 6.
!!total time: 54 min.
=1	=1
1.r	.
=2	=2
4r	.
4r	.
{8f	{Il
8f	m'a
2f-}	dit:}
4r	.
=3	=3
2r	.
4r	.
4r	.
{4gn	{<<Cet-
4f	-te
=4	=4
4f-}	nuit,}
4r	.
{8d-	{j'ai
8f-	re^-
2.d-}	-ve/.}
=5	=5
2r	.
4r	.
8r	.
{8fn	{J'a-
8gn	-vais
8gn	ta
8fn	che-
8fn	-ve-
=6	=6
8f-	-lure
8f-	au-
12d-	-tour
12d-	de
12d-	mon
4f-}	cou.}
4r	.
2r	.
=7	=7
4r	.
{8a-	{J'a-
8a-	-vais
8gn	tes
8bn	che-
4f#	-veux
8f#	comme
8f#	un
8fn	col-
8fn	-lier
=8	=8
8an	noir
8an	au-
12a-	-tour
12a-	de
12ccn	ma
8gn	nuque
8gn	et
12g-	sur
12g-	ma
12b-	poi-
[2ccn	-tri-
=9	=9
*M3/4	*
!! (not written)
2ccn]	|
4ccn}	-ne.}
=10	=10
*M6/4	*
4r	.
{8b-	{Je
8b-	les
8b-	ca-
8b-	-res-
8a-	-sais,
8a-	et
12a-	c'e-
12a-	-taient
12a-	les
4g-}	miens;}
=11	=11
8r	.
{8en	{et
8en	nous
8en	e/-
8en	-tions
8en	li-
12dn	-e/s
12dn	pour
12dn	tou-
8.dn	-jours
16dn	ain-
4dn}	-si,}
!!removed dot from last note to correct timing
=12	=12
*k[]	*
*M9/4	*
{8c	{par
8d	la
8e	me^-
8f#	-me
12f#	che-
12g	|
12a	-ve-
8b	-lu-
16b	-re,
16b	la
16cc	bou-
16cc	-che
16dd	sur
16ee	la
[4ee	bou-
(2ee]	|
4e)}	-che,}
=13	=13
*M6/4	*
8r	.
{8e	{ain-
8e	-si
8e	que
8e	deux
8e	lau-
4f	-riers
4f	n'ont
4a	sou-
=14	=14
4.e	-vent
8e	qu'u-
8e	-ne
8e	ra-
2g	-ci-
4e-}	-ne.}
=15	=15
2.r	.
4r	.
{4f#	{Et
12r	.
12e	peu
12e	a\
=16	=16
4g}	peu,}
8r	.
{8g	{il
8g	m'a
8g	sem-
4cc}	-ble/,}
{8cc	{tant
8cc	nos
12b	mem-
12b	-bres
12b	e/-
=17	=17
12a	-taient
12a	con-
12a	-fon-
8cc}	-dus,}
{16cc	{que
16cc	je
16bb	de-
16bb	-ve-
16bb	-nais
16bb	toi~
2ee	~me^-
4dd#	-me,
=18	=18
8ddn	ou
8ddn	que
8ddn	tu
8ddn	en-
8cc#	-trais
8cc#	en
4.ff#	moi
8f#	com-
8g#	-me
8g#	mon
=19	=19
2.b	son-
4f}	-ge.>>}
4r	.
4r	.
=20	=20
*k[b-e-a-d-g-c-]	*
1.r	.
=21	=21
4r	.
{8f	{Quand
8f	il
12f	eut
12f	a-
12f	-che-
[4f-	-ve/,
8f-]}	|}
8r	.
4r	.
=22	=22
4r	.
{8e-	{il
8e-	mit
8dn	dou-
8dn	-ce-
8g-	-ment
8g-	ses
8f	mains
8f	sur
8f-	mes
8a-	e/-
=23	=23
*M3/4	*
4e-	-pau-
4dn}	-les,}
{8dn	{et
8dn	il
=24	=24
*M6/4	*
12d-	me
12d-	re-
12f-	-gar-
6f-	-da
12f-	d'un
12f-	re-
12f-	-gard
12a-	si
8cc-	ten-
8a-}	-dre,}
8r	.
{8f-	{que
8f-	je
8f-	bais-
=25	=25
8fn	-sai
8fn	les
8dn	yeux
8dn	a-
12e-	-vec
12e-	un
12e-	fris-
4c-}	-son.}
4r	.
4r	.
*-	*-
